svg/account_lock_outline.svg

<svg xmlns="http://www.w3.org/2000/svg" viewBox="0 0 24 24"><path d="M22 17v-.5a2.5 2.5 0 0 0-5 0v.5c-.55 0-1 .45-1 1v4c0 .55.45 1 1 1h5c.55 0 1-.45 1-1v-4c0-.55-.45-1-1-1m-1 0h-3v-.5c0-.83.67-1.5 1.5-1.5s1.5.67 1.5 1.5zm-7 3H4v-3c0-2.67 5.33-4 8-4 1.08 0 2.6.22 4 .66-.39.49-.67 1.08-.84 1.72-.97-.28-2.07-.48-3.16-.48-2.97 0-6.1 1.46-6.1 2.1v1.1H14zm-2-8c2.21 0 4-1.79 4-4s-1.79-4-4-4-4 1.79-4 4 1.79 4 4 4m0-6a2 2 0 1 1 0 4c-1.11 0-2-.89-2-2s.9-2 2-2"/></svg>

<?xml version="1.0" encoding="UTF-8"?><!DOCTYPE svg PUBLIC "-//W3C//DTD SVG 1.1//EN" "http://www.w3.org/Graphics/SVG/1.1/DTD/svg11.dtd"><svg xmlns="http://www.w3.org/2000/svg" xmlns:xlink="http://www.w3.org/1999/xlink" version="1.1" id="mdi-account-lock-outline" width="24" height="24" viewBox="0 0 24 24"><path d="M22 17V16.5C22 15.12 20.88 14 19.5 14S17 15.12 17 16.5V17C16.45 17 16 17.45 16 18V22C16 22.55 16.45 23 17 23H22C22.55 23 23 22.55 23 22V18C23 17.45 22.55 17 22 17M21 17H18V16.5C18 15.67 18.67 15 19.5 15S21 15.67 21 16.5V17M14 20H4V17C4 14.33 9.33 13 12 13C13.08 13 14.6 13.22 16 13.66C15.61 14.15 15.33 14.74 15.16 15.38C14.19 15.1 13.09 14.9 12 14.9C9.03 14.9 5.9 16.36 5.9 17V18.1H14V20M12 12C14.21 12 16 10.21 16 8S14.21 4 12 4 8 5.79 8 8 9.79 12 12 12M12 6C13.11 6 14 6.9 14 8S13.11 10 12 10 10 9.11 10 8 10.9 6 12 6Z" /></svg>
